data/styles/clear/style-clear/symbols/monument-m.svg

<svg height="24" viewBox="0 0 24 24" width="24"><g fill="none" fill-rule="evenodd"><circle cx="12" cy="12" fill="#fff" opacity=".6" r="12"/><circle cx="12" cy="12" fill="#7f5933" r="11"/><path d="m10.6363636 7.32142857v6.96428573h-.90909087c-.39174546 0-.90909091.4769143-.90909091.8770357v1.4443929h-.90909091c-.45454546 0-.90909091.4642857-.90909091.9285714v.4642857h10v-.4642857c0-.4642857-.4545455-.9285714-.9090909-.9285714h-.9090909v-1.3928572c0-.4642857-.4545455-.9285714-.9090909-.9285714h-.9090909v-6.96428573c0-.72215-1.4141455-2.32142857-1.4141455-2.32142857s-1.3131273 1.59927857-1.3131273 2.32142857z" fill="#fff"/></g></svg>

<svg width="24" height="24" viewBox="0 0 24 24">
  <g fill="none" fill-rule="evenodd">
    <circle cx="12" cy="12" r="12" fill="#FFF" opacity=".6"/>
    <circle cx="12" cy="12" r="11" fill="#7F5933"/>
    <path fill="#FFF" d="M10.6363636,7.32142857 L10.6363636,14.2857143 L9.72727273,14.2857143 C9.33552727,14.2857143 8.81818182,14.7626286 8.81818182,15.16275 L8.81818182,16.6071429 L7.90909091,16.6071429 C7.45454545,16.6071429 7,17.0714286 7,17.5357143 L7,18 L17,18 L17,17.5357143 C17,17.0714286 16.5454545,16.6071429 16.0909091,16.6071429 L15.1818182,16.6071429 L15.1818182,15.2142857 C15.1818182,14.75 14.7272727,14.2857143 14.2727273,14.2857143 L13.3636364,14.2857143 L13.3636364,7.32142857 C13.3636364,6.59927857 11.9494909,5 11.9494909,5 C11.9494909,5 10.6363636,6.59927857 10.6363636,7.32142857 Z"/>
  </g>
</svg>
